assets/img/icons/icon-black-home-7-service-3.svg

<svg width="87" height="70" viewBox="0 0 87 70" fill="none" xmlns="http://www.w3.org/2000/svg">
<path d="M0.816675 16.8672C1.08271 17.5768 1.34867 18.286 1.61471 18.9955C4.24664 18.4036 6.93692 18.5659 9.63318 18.7153C13.2861 28.8079 16.939 38.9009 20.592 48.9935C21.5203 51.5585 22.5277 54.2412 24.5932 56.023C26.4225 57.6008 28.7983 58.2198 31.2476 58.3785C29.5975 59.8209 28.6606 61.9608 28.7899 64.2417C29.1137 69.9233 35.0382 71.3917 39.3415 68.6858C43.3717 66.1432 43.6227 61.1758 40.6365 58.4745C45.1805 58.5994 49.7206 58.6266 55.8794 58.3979C54.2051 59.8409 53.2509 61.9944 53.3817 64.2921C53.5923 67.9894 55.9815 69.8573 59.5268 69.8573C66.9363 69.8573 69.9109 61.7147 64.4704 57.9331C64.6216 57.9227 64.7705 57.9156 64.9219 57.9046C67.3831 57.7288 69.5321 56.0052 70.2705 53.6131C73.0323 44.659 75.1406 34.929 76.367 25.4745C76.5526 24.0468 75.4667 22.7467 74.0176 22.679C67.3203 22.3661 60.4566 22.1877 53.6022 22.1304L53.9196 2.71742C53.9436 1.31609 52.8322 0.149152 51.4151 0.124926L44.2782 0.00208903C43.378 -0.0347619 42.5895 0.419087 42.1251 1.11344C41.2815 1.71727 40.6988 2.66376 40.4112 3.67199C39.9643 5.23902 40.0724 5.32641 40.0194 22.198C31.6908 22.3473 23.187 22.6939 14.6882 23.2518C13.822 20.8623 12.9337 18.3836 12.0149 15.7872C11.8772 15.398 11.5126 15.1343 11.0995 15.1252L1.012 14.9157C-0.19695 14.8782 -0.396581 16.6427 0.816675 16.8672ZM40.5718 63.943C39.5276 68.5512 31.1185 70.0776 30.7727 64.1279C30.5155 59.5844 35.7446 56.7738 39.284 59.9256C40.3785 60.8993 40.8964 62.5142 40.5718 63.943ZM65.1637 63.9947C64.229 68.1172 58.1568 68.8237 56.258 66.7217C55.5986 65.9924 55.4085 64.9361 55.3646 64.1783C55.1068 59.6276 60.3413 56.8314 63.8758 59.9773C64.9704 60.951 65.4882 62.566 65.1637 63.9947ZM42.9471 28.8402C43.5181 28.2942 43.1266 29.2681 43.6725 2.54028C43.6776 2.23125 43.9156 1.99075 44.2453 1.98816L51.3821 2.111C51.6905 2.11632 51.9389 2.36891 51.9335 2.6838C51.5434 26.5525 51.7515 13.8216 51.5133 28.3902C51.5043 28.9385 51.9413 29.391 52.4895 29.4001L59.7434 29.5242C55.6403 33.5733 51.741 37.5628 47.6401 41.5816C43.3764 37.7066 38.627 33.5328 34.6375 28.8919C42.4006 29.0193 42.4207 29.3489 42.9471 28.8402ZM40.0132 24.1847C40.0102 25.1441 40.0072 26.1036 40.0041 27.0633L32.5028 26.8425C31.7505 26.853 31.2746 27.5718 31.5703 28.2377C31.4165 29.1087 31.201 29.7511 31.7931 30.3537C36.0748 34.7112 40.4831 39.2024 44.7535 43.5476C45.2369 44.0396 45.7979 44.2892 46.4768 44.4104C46.862 44.4792 47.457 44.2397 47.8915 43.8974C48.0604 43.8573 48.2234 43.7888 48.3558 43.6595C53.2868 38.8497 57.9026 34.0858 62.8253 29.2837C63.4567 28.6651 63.0255 27.5937 62.1484 27.5795L53.5156 27.4308L53.5698 24.1162C60.4042 24.1731 67.2479 24.3515 73.9239 24.6625C74.212 24.6762 74.4339 24.9368 74.3978 25.2198C73.1856 34.5644 71.1019 44.1806 68.3723 53.0274C67.8745 54.6424 66.4308 55.8061 64.7803 55.9237C52.5206 56.803 40.8104 56.8043 29.9756 55.9237C28.5035 55.8061 27.2072 54.8764 26.5943 53.5006C23.2182 45.8505 19.5978 36.705 15.3963 25.1988C23.6568 24.6667 31.9175 24.3302 40.0132 24.1847Z" fill="black"/>
<path d="M34.3366 61.7448C34.3295 61.7487 34.323 61.7526 34.3159 61.7564C34.3056 61.7616 34.2952 61.7668 34.2849 61.7732C33.2673 62.3538 32.8929 63.7063 33.467 64.7265C34.0394 65.7467 35.39 66.1315 36.4132 65.5644C37.4379 64.9993 37.8316 63.652 37.2724 62.6228C36.7132 61.5935 35.3684 61.1888 34.3366 61.7448Z" fill="black"/>
<path d="M59.1868 61.2029C59.1797 61.2068 59.172 61.2119 59.1649 61.2158C59.1545 61.221 59.1442 61.2262 59.1338 61.2326C57.2841 62.2862 57.8963 65.2862 60.2348 65.2862C61.8853 65.2862 62.8799 63.4816 62.1213 62.0821C61.5628 61.0555 60.2193 60.656 59.1868 61.2029Z" fill="black"/>
<path d="M71.3841 19.6713C71.8561 19.6713 72.275 19.3338 72.3603 18.8528L73.2021 14.1229C73.2984 13.5825 72.9383 13.0665 72.3985 12.9709C71.8664 12.8855 71.3434 13.2333 71.2471 13.7738L70.4053 18.5037C70.2972 19.1103 70.7624 19.6713 71.3841 19.6713Z" fill="black"/>
<path d="M80.4737 14.815C80.0438 14.4775 79.418 14.5525 79.0799 14.9856L75.3773 19.7194C74.8642 20.376 75.3423 21.324 76.1589 21.324C76.4538 21.324 76.746 21.1934 76.9419 20.9426L80.6444 16.2088C80.9819 15.777 80.9063 15.1524 80.4737 14.815Z" fill="black"/>
<path d="M85.2483 22.8845L78.4599 24.1336C77.1729 24.3682 77.5214 26.3346 78.8194 26.0861L85.6077 24.837C86.1469 24.7387 86.5038 24.2202 86.4049 23.681C86.3046 23.1419 85.7894 22.7824 85.2483 22.8845Z" fill="black"/>
</svg>

<?xml version="1.0" encoding="utf-8"?>
<!-- Generator: Adobe Illustrator 28.3.0, SVG Export Plug-In . SVG Version: 6.00 Build 0)  -->
<svg version="1.1" id="Layer_1" xmlns="http://www.w3.org/2000/svg" xmlns:xlink="http://www.w3.org/1999/xlink" x="0px" y="0px"
	 viewBox="0 0 87 70" style="enable-background:new 0 0 87 70;" xml:space="preserve">
<style type="text/css">
	.st0{fill:#27466F;}
</style>
<path class="st0" d="M0.8,16.9c0.3,0.7,0.5,1.4,0.8,2.1c2.6-0.6,5.3-0.4,8-0.3c3.7,10.1,7.3,20.2,11,30.3c0.9,2.6,1.9,5.2,4,7
	c1.8,1.6,4.2,2.2,6.7,2.4c-1.7,1.4-2.6,3.6-2.5,5.9c0.3,5.7,6.2,7.2,10.6,4.4c4-2.5,4.3-7.5,1.3-10.2c4.5,0.1,9.1,0.2,15.2-0.1
	c-1.7,1.4-2.6,3.6-2.5,5.9c0.2,3.7,2.6,5.6,6.1,5.6c7.4,0,10.4-8.1,4.9-11.9c0.2,0,0.3,0,0.5,0c2.5-0.2,4.6-1.9,5.3-4.3
	c2.8-9,4.9-18.7,6.1-28.1c0.2-1.4-0.9-2.7-2.3-2.8c-6.7-0.3-13.6-0.5-20.4-0.5l0.3-19.4c0-1.4-1.1-2.6-2.5-2.6L44.3,0
	c-0.9,0-1.7,0.4-2.2,1.1c-0.8,0.6-1.4,1.6-1.7,2.6C40,5.2,40.1,5.3,40,22.2c-8.3,0.1-16.8,0.5-25.3,1.1c-0.9-2.4-1.8-4.9-2.7-7.5
	c-0.1-0.4-0.5-0.7-0.9-0.7L1,14.9C-0.2,14.9-0.4,16.6,0.8,16.9z M40.6,63.9c-1,4.6-9.5,6.1-9.8,0.2c-0.3-4.5,5-7.4,8.5-4.2
	C40.4,60.9,40.9,62.5,40.6,63.9z M65.2,64c-0.9,4.1-7,4.8-8.9,2.7c-0.7-0.7-0.8-1.8-0.9-2.5c-0.3-4.6,5-7.3,8.5-4.2
	C65,61,65.5,62.6,65.2,64z M42.9,28.8c0.6-0.5,0.2,0.4,0.7-26.3c0-0.3,0.2-0.5,0.6-0.6l7.1,0.1c0.3,0,0.6,0.3,0.6,0.6
	c-0.4,23.9-0.2,11.1-0.4,25.7c0,0.5,0.4,1,1,1l7.3,0.1c-4.1,4-8,8-12.1,12.1c-4.3-3.9-9-8-13-12.7C42.4,29,42.4,29.3,42.9,28.8z
	 M40,24.2c0,1,0,1.9,0,2.9l-7.5-0.2c-0.8,0-1.2,0.7-0.9,1.4c-0.2,0.9-0.4,1.5,0.2,2.1c4.3,4.4,8.7,8.8,13,13.2
	c0.5,0.5,1,0.7,1.7,0.9c0.4,0.1,1-0.2,1.4-0.5c0.2,0,0.3-0.1,0.5-0.2c4.9-4.8,9.5-9.6,14.5-14.4c0.6-0.6,0.2-1.7-0.7-1.7l-8.6-0.1
	l0.1-3.3c6.8,0.1,13.7,0.2,20.4,0.5c0.3,0,0.5,0.3,0.5,0.6c-1.2,9.3-3.3,19-6,27.8c-0.5,1.6-1.9,2.8-3.6,2.9
	c-12.3,0.9-24,0.9-34.8,0c-1.5-0.1-2.8-1-3.4-2.4c-3.4-7.7-7-16.8-11.2-28.3C23.7,24.7,31.9,24.3,40,24.2z"/>
<path class="st0" d="M34.3,61.7C34.3,61.7,34.3,61.8,34.3,61.7C34.3,61.8,34.3,61.8,34.3,61.7c-1.1,0.6-1.4,2-0.9,3
	c0.6,1,1.9,1.4,2.9,0.8c1-0.6,1.4-1.9,0.9-2.9C36.7,61.6,35.4,61.2,34.3,61.7z"/>
<path class="st0" d="M59.2,61.2C59.2,61.2,59.2,61.2,59.2,61.2C59.2,61.2,59.1,61.2,59.2,61.2c-1.9,1.1-1.3,4.1,1,4.1
	c1.7,0,2.6-1.8,1.9-3.2C61.6,61.1,60.2,60.7,59.2,61.2z"/>
<path class="st0" d="M71.4,19.7c0.5,0,0.9-0.3,1-0.8l0.8-4.7c0.1-0.5-0.3-1.1-0.8-1.2c-0.5-0.1-1.1,0.3-1.2,0.8l-0.8,4.7
	C70.3,19.1,70.8,19.7,71.4,19.7z"/>
<path class="st0" d="M80.5,14.8c-0.4-0.3-1.1-0.3-1.4,0.2l-3.7,4.7c-0.5,0.7,0,1.6,0.8,1.6c0.3,0,0.6-0.1,0.8-0.4l3.7-4.7
	C81,15.8,80.9,15.2,80.5,14.8z"/>
<path class="st0" d="M85.2,22.9l-6.8,1.2c-1.3,0.2-0.9,2.2,0.4,2l6.8-1.2c0.5-0.1,0.9-0.6,0.8-1.2C86.3,23.1,85.8,22.8,85.2,22.9z"
	/>
</svg>
